build/images/jury/decor-line-md.svg

<svg width="251" height="7" viewBox="0 0 251 7" fill="none" xmlns="http://www.w3.org/2000/svg">
<g clip-path="url(#clip0_542_1508)">
<path d="M5.57865 5.78653C4.82773 6.56371 3.82117 6.99847 2.7733 6.99826H0L5.20973 1.45991C5.6449 0.996889 6.16163 0.629613 6.73036 0.379074C7.2991 0.128535 7.90869 -0.000353738 8.5243 -0.000224024H11.1594L5.57865 5.78653ZM18.3541 -0.000224024H15.7189C15.1033 -0.000230051 14.4938 0.128715 13.9251 0.379247C13.3563 0.629779 12.8396 0.99699 12.4044 1.45991L7.1932 6.99977H9.9665C11.0144 7.00015 12.021 6.56536 12.7719 5.78805L18.3541 -0.000224024ZM25.5473 -0.000224024H22.9121C22.2965 -0.000230051 21.687 0.128715 21.1183 0.379247C20.5495 0.629779 20.0328 0.99699 19.5976 1.45991L14.3864 6.99977H17.1569C18.2048 7.00015 19.2114 6.56536 19.9622 5.78805L25.5473 -0.000224024ZM32.7405 -0.000224024H30.1053C29.4897 -0.000230051 28.8802 0.128715 28.3115 0.379247C27.7427 0.629779 27.226 0.99699 26.7908 1.45991L21.5796 6.99977H24.3522C25.4001 7.00015 26.4067 6.56536 27.1575 5.78805L32.7405 -0.000224024ZM39.9337 -0.000224024H37.2985C36.6829 -0.000353738 36.0733 0.128535 35.5046 0.379074C34.9359 0.629613 34.4191 0.996889 33.984 1.45991L28.7678 6.99977H31.5404C32.5883 7.00015 33.5949 6.56536 34.3458 5.78805L39.9337 -0.000224024ZM47.1269 -0.000224024H44.4917C43.8761 -0.000353738 43.2665 0.128535 42.6978 0.379074C42.1291 0.629613 41.6123 0.996889 41.1772 1.45991L35.9596 6.99977H38.7322C39.7801 7.00015 40.7867 6.56536 41.5375 5.78805L47.1269 -0.000224024ZM54.3201 -0.000224024H51.6849C51.0673 -0.00204902 50.4554 0.126016 49.8845 0.376604C49.3136 0.627191 48.7949 0.995353 48.3583 1.45991L43.1514 6.99977H45.9247C46.9726 6.99999 47.9791 6.56522 48.73 5.78805L54.3201 -0.000224024ZM61.5133 -0.000224024H58.8781C58.2605 -0.00204902 57.6486 0.126016 57.0777 0.376604C56.5068 0.627191 55.9881 0.995353 55.5515 1.45991L50.3432 6.99977H53.1165C54.1643 6.99999 55.1709 6.56522 55.9218 5.78805L61.5133 -0.000224024ZM68.7065 -0.000224024H66.0714C65.4537 -0.00192443 64.8419 0.126198 64.271 0.376778C63.7001 0.627358 63.1814 0.995454 62.7447 1.45991L57.5349 6.99977H60.3082C61.3561 6.99999 62.3627 6.56522 63.1136 5.78805L68.7065 -0.000224024ZM75.8997 -0.000224024H73.2645C72.6469 -0.00209059 72.035 0.125956 71.4641 0.376545C70.8931 0.627135 70.3745 0.995319 69.9379 1.45991L64.7267 6.99977H67.5C68.5479 7.00015 69.5545 6.56536 70.3054 5.78805L75.8997 -0.000224024ZM83.0929 -0.000224024H80.4578C79.8401 -0.00209059 79.2282 0.125956 78.6573 0.376545C78.0863 0.627135 77.5677 0.995319 77.1311 1.45991L71.9213 6.99977H74.6939C75.7418 7.00015 76.7485 6.56536 77.4993 5.78805L83.0929 -0.000224024ZM90.2861 -0.000224024H87.651C87.0333 -0.00204902 86.4214 0.126016 85.8505 0.376604C85.2796 0.627191 84.7609 0.995353 84.3243 1.45991L79.111 6.99977H81.8836C82.9315 7.00015 83.9381 6.56536 84.6889 5.78805L90.2861 -0.000224024ZM97.4793 -0.000224024H94.8442C94.2286 -0.000353738 93.619 0.128535 93.0502 0.379074C92.4815 0.629613 91.9648 0.996889 91.5296 1.45991L86.3199 6.99977H89.0932C90.1409 7.00019 91.1473 6.56538 91.8978 5.78805L97.4793 -0.000224024ZM104.672 -0.000224024H102.037C101.422 -0.000353738 100.812 0.128535 100.243 0.379074C99.6747 0.629613 99.158 0.996889 98.7228 1.45991L93.5131 6.99977H96.2864C97.3342 6.99999 98.3408 6.56522 99.0917 5.78805L104.672 -0.000224024ZM111.866 -0.000224024H109.231C108.615 -0.000271266 108.005 0.128655 107.437 0.379189C106.868 0.629723 106.351 0.996956 105.916 1.45991L100.706 6.99977H103.48C104.527 6.99999 105.534 6.56522 106.285 5.78805L111.866 -0.000224024ZM119.059 -0.000224024H116.424C115.808 -0.000230051 115.199 0.128715 114.63 0.379247C114.061 0.629779 113.544 0.99699 113.109 1.45991L107.899 6.99977H110.673C111.721 6.99999 112.727 6.56522 113.478 5.78805L119.059 -0.000224024ZM126.252 -0.000224024H123.617C123.001 -0.000295468 122.392 0.128623 121.823 0.379161C121.255 0.6297 120.738 0.996946 120.303 1.45991L115.07 6.99977H117.843C118.891 7.00015 119.898 6.56536 120.649 5.78805L126.252 -0.000224024ZM133.445 -0.000224024H130.81C130.195 -0.000353738 129.585 0.128535 129.016 0.379074C128.447 0.629613 127.931 0.996889 127.496 1.45991L122.285 6.99977H125.058C126.106 7.00015 127.113 6.56536 127.864 5.78805L133.445 -0.000224024ZM140.639 -0.000224024H138.003C137.388 -0.000353738 136.778 0.128535 136.209 0.379074C135.641 0.629613 135.124 0.996889 134.689 1.45991L129.479 6.99977H132.252C133.3 7.00015 134.306 6.56536 135.057 5.78805L140.639 -0.000224024ZM147.832 -0.000224024H145.197C144.581 -0.000353738 143.971 0.128535 143.403 0.379074C142.834 0.629613 142.317 0.996889 141.882 1.45991L136.672 6.99977H139.446C140.493 7.00019 141.5 6.56538 142.25 5.78805L147.832 -0.000224024ZM155.025 -0.000224024H152.39C151.774 -0.000271266 151.165 0.128655 150.596 0.379189C150.027 0.629723 149.51 0.996956 149.075 1.45991L143.865 6.99977H146.639C147.687 6.99999 148.693 6.56522 149.444 5.78805L155.025 -0.000224024Z" fill="white"/>
</g>
<g clip-path="url(#clip1_542_1508)">
<path d="M157.579 5.78653C156.828 6.56371 155.821 6.99847 154.773 6.99826H152L157.21 1.45991C157.645 0.996889 158.162 0.629613 158.73 0.379074C159.299 0.128535 159.909 -0.000353738 160.524 -0.000224024H163.159L157.579 5.78653ZM170.354 -0.000224024H167.719C167.103 -0.000230051 166.494 0.128715 165.925 0.379247C165.356 0.629779 164.84 0.99699 164.404 1.45991L159.193 6.99977H161.967C163.014 7.00015 164.021 6.56536 164.772 5.78805L170.354 -0.000224024ZM177.547 -0.000224024H174.912C174.297 -0.000230051 173.687 0.128715 173.118 0.379247C172.55 0.629779 172.033 0.99699 171.598 1.45991L166.386 6.99977H169.157C170.205 7.00015 171.211 6.56536 171.962 5.78805L177.547 -0.000224024ZM184.74 -0.000224024H182.105C181.49 -0.000230051 180.88 0.128715 180.311 0.379247C179.743 0.629779 179.226 0.99699 178.791 1.45991L173.58 6.99977H176.352C177.4 7.00015 178.407 6.56536 179.158 5.78805L184.74 -0.000224024ZM191.934 -0.000224024H189.299C188.683 -0.000353738 188.073 0.128535 187.505 0.379074C186.936 0.629613 186.419 0.996889 185.984 1.45991L180.768 6.99977H183.54C184.588 7.00015 185.595 6.56536 186.346 5.78805L191.934 -0.000224024ZM199.127 -0.000224024H196.492C195.876 -0.000353738 195.267 0.128535 194.698 0.379074C194.129 0.629613 193.612 0.996889 193.177 1.45991L187.96 6.99977H190.732C191.78 7.00015 192.787 6.56536 193.538 5.78805L199.127 -0.000224024ZM206.32 -0.000224024H203.685C203.067 -0.00204902 202.455 0.126016 201.884 0.376604C201.314 0.627191 200.795 0.995353 200.358 1.45991L195.151 6.99977H197.925C198.973 6.99999 199.979 6.56522 200.73 5.78805L206.32 -0.000224024ZM213.513 -0.000224024H210.878C210.261 -0.00204902 209.649 0.126016 209.078 0.376604C208.507 0.627191 207.988 0.995353 207.551 1.45991L202.343 6.99977H205.116C206.164 6.99999 207.171 6.56522 207.922 5.78805L213.513 -0.000224024ZM220.706 -0.000224024H218.071C217.454 -0.00192443 216.842 0.126198 216.271 0.376778C215.7 0.627358 215.181 0.995454 214.745 1.45991L209.535 6.99977H212.308C213.356 6.99999 214.363 6.56522 215.114 5.78805L220.706 -0.000224024ZM227.9 -0.000224024H225.265C224.647 -0.00209059 224.035 0.125956 223.464 0.376545C222.893 0.627135 222.374 0.995319 221.938 1.45991L216.727 6.99977H219.5C220.548 7.00015 221.555 6.56536 222.305 5.78805L227.9 -0.000224024ZM235.093 -0.000224024H232.458C231.84 -0.00209059 231.228 0.125956 230.657 0.376545C230.086 0.627135 229.568 0.995319 229.131 1.45991L223.921 6.99977H226.694C227.742 7.00015 228.748 6.56536 229.499 5.78805L235.093 -0.000224024ZM242.286 -0.000224024H239.651C239.033 -0.00204902 238.421 0.126016 237.851 0.376604C237.28 0.627191 236.761 0.995353 236.324 1.45991L231.111 6.99977H233.884C234.931 7.00015 235.938 6.56536 236.689 5.78805L242.286 -0.000224024ZM249.479 -0.000224024H246.844C246.229 -0.000353738 245.619 0.128535 245.05 0.379074C244.481 0.629613 243.965 0.996889 243.53 1.45991L238.32 6.99977H241.093C242.141 7.00019 243.147 6.56538 243.898 5.78805L249.479 -0.000224024Z" fill="white"/>
</g>
<defs>
<clipPath id="clip0_542_1508">
<rect width="155" height="7" fill="white" transform="translate(0 -0.000244141)"/>
</clipPath>
<clipPath id="clip1_542_1508">
<rect width="99" height="7" fill="white" transform="translate(152 -0.000244141)"/>
</clipPath>
</defs>
</svg>

<svg width="251" height="7" fill="none" xmlns="http://www.w3.org/2000/svg"><g clip-path="url(#clip0_542_1508)"><path d="M5.579 5.787a3.9 3.9 0 01-2.806 1.211H0L5.21 1.46A4.67 4.67 0 016.73.38 4.444 4.444 0 018.524 0h2.635L5.58 5.787zM18.354 0H15.72c-.616 0-1.225.129-1.794.38a4.678 4.678 0 00-1.52 1.08L7.192 7h2.774a3.898 3.898 0 002.805-1.212L18.354 0zm7.193 0h-2.635c-.615 0-1.225.129-1.794.38a4.678 4.678 0 00-1.52 1.08L14.386 7h2.77a3.898 3.898 0 002.806-1.212L25.547 0zm7.193 0h-2.635c-.615 0-1.225.129-1.794.38a4.678 4.678 0 00-1.52 1.08L21.58 7h2.772a3.898 3.898 0 002.805-1.212L32.74 0zm7.194 0h-2.636c-.615 0-1.225.129-1.793.38a4.676 4.676 0 00-1.521 1.08L28.768 7h2.772a3.898 3.898 0 002.806-1.212L39.934 0zm7.193 0h-2.635c-.616 0-1.225.129-1.794.38a4.676 4.676 0 00-1.52 1.08L35.96 7h2.772a3.898 3.898 0 002.806-1.212L47.127 0zm7.193 0h-2.635a4.443 4.443 0 00-1.8.377c-.571.25-1.09.618-1.527 1.083L43.151 7h2.774a3.9 3.9 0 002.805-1.212L54.32 0zm7.193 0h-2.635a4.443 4.443 0 00-1.8.377c-.571.25-1.09.618-1.527 1.083L50.343 7h2.773a3.9 3.9 0 002.806-1.212L61.513 0zm7.194 0H66.07a4.445 4.445 0 00-1.8.377c-.57.25-1.09.618-1.526 1.083L57.535 7h2.773a3.9 3.9 0 002.806-1.212L68.707 0zM75.9 0h-2.636a4.442 4.442 0 00-1.8.377c-.57.25-1.09.618-1.526 1.083L64.727 7H67.5a3.898 3.898 0 002.805-1.212L75.9 0zm7.193 0h-2.635a4.442 4.442 0 00-1.8.377c-.572.25-1.09.618-1.527 1.083L71.921 7h2.773a3.898 3.898 0 002.805-1.212L83.093 0zm7.193 0h-2.635a4.443 4.443 0 00-1.8.377c-.571.25-1.09.618-1.527 1.083L79.111 7h2.773a3.898 3.898 0 002.805-1.212L90.286 0zm7.193 0h-2.635c-.615 0-1.225.129-1.794.38a4.678 4.678 0 00-1.52 1.08L86.32 7h2.773a3.896 3.896 0 002.805-1.212L97.479 0zm7.193 0h-2.635c-.615 0-1.225.129-1.794.38a4.68 4.68 0 00-1.52 1.08L93.513 7h2.773a3.9 3.9 0 002.806-1.212L104.672 0zm7.194 0h-2.635c-.616 0-1.226.129-1.794.38a4.674 4.674 0 00-1.521 1.08L100.706 7h2.774a3.9 3.9 0 002.805-1.212L111.866 0zm7.193 0h-2.635c-.616 0-1.225.129-1.794.38a4.675 4.675 0 00-1.521 1.08L107.899 7h2.774a3.899 3.899 0 002.805-1.212L119.059 0zm7.193 0h-2.635c-.616 0-1.225.129-1.794.38a4.681 4.681 0 00-1.52 1.08L115.07 7h2.773a3.9 3.9 0 002.806-1.212L126.252 0zm7.193 0h-2.635c-.615 0-1.225.129-1.794.38a4.67 4.67 0 00-1.52 1.08L122.285 7h2.773a3.9 3.9 0 002.806-1.212L133.445 0zm7.194 0h-2.636c-.615 0-1.225.129-1.794.38a4.68 4.68 0 00-1.52 1.08L129.479 7h2.773a3.898 3.898 0 002.805-1.212L140.639 0zm7.193 0h-2.635a4.44 4.44 0 00-1.794.38 4.674 4.674 0 00-1.521 1.08L136.672 7h2.774a3.895 3.895 0 002.804-1.212L147.832 0zm7.193 0h-2.635c-.616 0-1.225.129-1.794.38a4.674 4.674 0 00-1.521 1.08L143.865 7h2.774a3.899 3.899 0 002.805-1.212L155.025 0z" fill="#fff"/></g><g clip-path="url(#clip1_542_1508)"><path d="M157.579 5.787a3.9 3.9 0 01-2.806 1.211H152l5.21-5.538a4.68 4.68 0 011.52-1.08 4.447 4.447 0 011.794-.38h2.635l-5.58 5.787zM170.354 0h-2.635c-.616 0-1.225.129-1.794.38a4.685 4.685 0 00-1.521 1.08L159.193 7h2.774a3.9 3.9 0 002.805-1.212L170.354 0zm7.193 0h-2.635a4.45 4.45 0 00-1.794.38 4.681 4.681 0 00-1.52 1.08L166.386 7h2.771a3.898 3.898 0 002.805-1.212L177.547 0zm7.193 0h-2.635a4.45 4.45 0 00-1.794.38 4.681 4.681 0 00-1.52 1.08L173.58 7h2.772a3.9 3.9 0 002.806-1.212L184.74 0zm7.194 0h-2.635a4.44 4.44 0 00-1.794.38 4.674 4.674 0 00-1.521 1.08L180.768 7h2.772a3.9 3.9 0 002.806-1.212L191.934 0zm7.193 0h-2.635c-.616 0-1.225.129-1.794.38a4.674 4.674 0 00-1.521 1.08L187.96 7h2.772a3.9 3.9 0 002.806-1.212L199.127 0zm7.193 0h-2.635a4.445 4.445 0 00-1.801.377 4.69 4.69 0 00-1.526 1.083L195.151 7h2.774a3.899 3.899 0 002.805-1.212L206.32 0zm7.193 0h-2.635a4.443 4.443 0 00-1.8.377c-.571.25-1.09.618-1.527 1.083L202.343 7h2.773a3.9 3.9 0 002.806-1.212L213.513 0zm7.193 0h-2.635a4.446 4.446 0 00-1.8.377 4.67 4.67 0 00-1.526 1.083L209.535 7h2.773a3.9 3.9 0 002.806-1.212L220.706 0zm7.194 0h-2.635a4.444 4.444 0 00-1.801.377c-.571.25-1.09.618-1.526 1.083L216.727 7h2.773a3.896 3.896 0 002.805-1.212L227.9 0zm7.193 0h-2.635a4.444 4.444 0 00-1.801.377 4.679 4.679 0 00-1.526 1.083L223.921 7h2.773a3.898 3.898 0 002.805-1.212L235.093 0zm7.193 0h-2.635a4.436 4.436 0 00-1.8.377c-.571.25-1.09.618-1.527 1.083L231.111 7h2.773a3.9 3.9 0 002.805-1.212L242.286 0zm7.193 0h-2.635c-.615 0-1.225.129-1.794.38a4.67 4.67 0 00-1.52 1.08L238.32 7h2.773a3.897 3.897 0 002.805-1.212L249.479 0z" fill="#fff"/></g><defs><clipPath id="clip0_542_1508"><path fill="#fff" d="M0 0h155v7H0z"/></clipPath><clipPath id="clip1_542_1508"><path fill="#fff" transform="translate(152)" d="M0 0h99v7H0z"/></clipPath></defs></svg>
